X:11570
T:My Love is in Bulgaria
M:7/8
L:1/8
C:Henrik Norbeck
H:This is a strange version of "My Love is in America"
K:Dmix
FDF ABcB|Add Ad~d2|FDF ABcA|GAG FD~D2|
{A}FDF ABcB|Add {e}defg|age {a}fdAF|GAG FD~D2:|
|:fdg fde^c|Add Ad~d2|{a}fdg fdAF|GAG FD~D2|
fdg fde^c|Add {e}defg|age {a}fdAF|GAG FD~D2:|
